X:1
T:Title
%%score { ( 1 3 ) | 2 }
L:1/8
M:4/4
K:Ab
V:1 treble nm="Grand Piano"
V:3 treble 
V:2 bass 
V:1
 z4 z2[Q:1/4=100] [CA][DB] | [Ec]2 [DB][Ec] [CA]2 [CA][EG] | [DF] [FA]2 [DF] [CE]2 EE | %3
 A2 AA [=Dc]2 [DB][DA] | [DB]6 [CA][DB] | [Ec]2 [DB][Ec] [CA]2 [CA][EG] |[M:3/4] [DF] [FA]2 F E2 | %7
[M:1/4] AB |[M:4/4] c2 dc B2 [=DF][_DG] |[M:3/4] [CA]6 |[M:1/4] [Dd]>[Ec] | %11
[M:4/4] [Ec]2 [Ec]>[DB] [CA]2 [CA][EG] | [DF] [FA]2 [DF] [CE]2 z D | A2 AA [=Dc]2 [DB][DA] | %14
 [EB]6 [Ee]2 | [Ec]2 [DB][Ec] [CA]2 [CA][EG] |[M:3/4] [DF]2 [FA][DF] [CE]2 |[M:1/4] AB | %18
[M:4/4] c2 dc B2 [=DF][_DG] |[M:7/4] [CA]6 z2 z2 z4 |] %20
V:2
 z4 z2 [A,,E,][A,,E,] | [A,,A,]2 [A,,E,][A,,A,] [A,,E,]2 [A,,A,][C,A,] | %2
 [D,A,] [D,A,]2 [D,A,] [A,,A,]2 [A,C][G,B,D] | [F,A,C]2 [F,A,F][F,A,E] [B,,A,]2 [B,,B,][B,,B,] | %4
 [E,G,]6 [A,,E,][A,,E,] | [A,,A,]2 [A,,E,][A,,A,] [A,,E,]2 [A,,A,][C,A,] | %6
[M:3/4] [D,A,] [D,A,]2 [F,A,D] [A,C]2 |[M:1/4] [F,A,C][=E,A,D] | %8
[M:4/4] [E,A,E]2 [E,A,F][E,A,E] [F,A,=D]2 [B,,B,][E,B,] |[M:3/4] [A,,A,]6 |[M:1/4] [E,G,]>[E,G,] | %11
[M:4/4] [A,,A,]2 [A,,A,]>[A,,E,] [A,,E,]2 [A,,A,][C,A,] | %12
 [D,A,] [D,A,]2 [D,A,] [A,,A,]2 [A,C][G,B,] | [F,A,C]2 [F,A,F][F,A,E] [B,,A,]2 [B,,A,][B,,B,] | %14
 [E,G,]6 [E,G,]2 | [A,,A,]2 [A,,E,][A,,A,] [A,,E,]2 [A,,A,][C,A,] | %16
[M:3/4] [D,A,]2 [D,A,][F,A,] [A,,A,]2 |[M:1/4] [F,A,C][=E,A,D] | %18
[M:4/4] [E,A,E]2 [E,A,F][E,A,E] [F,A,=D]2 [B,,B,][E,B,] |[M:7/4] [A,,A,]6 z2 z2 z4 |] %20
V:3
 x8 | x8 | x8 | x8 | x8 | x8 |[M:3/4] x6 |[M:1/4] x2 |[M:4/4] x8 |[M:3/4] x6 |[M:1/4] x2 | %11
[M:4/4] x8 | z4 z2 E2 | x8 | x8 | x8 |[M:3/4] x6 |[M:1/4] x2 |[M:4/4] x8 |[M:7/4] x14 |] %20

